X:1
T:C-Dur-Ländler #3
M:3/4
L:1/8
S:j.m. schmalnauer: "tanz musik", böhlau, wien 1996 (compa bd. 5)
R:Ländler
N:"ganze Applikatur" (3rd Position)
K:C
[G2,G2](Bd).G.f|(eG)(gG).e.G|(fd)(BG,BG,)|C2 EGCc
|[G2,G2](Bd).G.f|(eG)(gG).e.G|(fd)(BG,BG,)|C6:|
|: [D2d2](^fa).d.c'|(bd)(d'd).b.d|(c'a)(^fDfD)|G2 BdGg
| [D2d2](^fa).d.c'|(bd)(d'd).b.d|(c'a)(^fDfD)|G6 :|
